dist/img/telegram.svg

<svg width="28" height="29" viewBox="0 0 28 29" fill="none" xmlns="http://www.w3.org/2000/svg">
<path d="M24.8511 4.26331C24.5783 4.27527 24.3128 4.35118 24.0734 4.44706C23.8364 4.54229 22.4721 5.12459 20.4575 5.98596C18.4428 6.84733 15.8239 7.96902 13.2278 9.08127C8.03561 11.3058 2.93341 13.4946 2.93341 13.4946L2.9706 13.4803C2.9706 13.4803 2.66265 13.5833 2.35044 13.8008C2.19434 13.9096 2.02639 14.05 1.88888 14.2547C1.75137 14.4594 1.65084 14.7496 1.68872 15.0564C1.82179 16.1343 2.93888 16.44 2.93888 16.44L2.94325 16.4422L7.92857 18.1485C8.05567 18.5725 9.44063 23.195 9.74529 24.1739C9.91354 24.7152 10.071 25.0274 10.2353 25.2403C10.3175 25.3469 10.4036 25.4294 10.4989 25.4897C10.5367 25.5137 10.5765 25.5317 10.6159 25.5477C10.6168 25.5481 10.6173 25.5473 10.6181 25.5477C10.6229 25.5498 10.6275 25.55 10.6323 25.5521L10.6192 25.5488C10.6283 25.5525 10.6374 25.5587 10.6465 25.5619C10.6643 25.5681 10.6752 25.5679 10.6979 25.5728C11.2689 25.7722 11.7414 25.4022 11.7414 25.4022L11.7611 25.3869L14.8236 22.5464L19.7936 26.4216L19.8559 26.45C20.7258 26.8363 21.5126 26.6208 21.9483 26.2663C22.3839 25.9118 22.5553 25.4547 22.5553 25.4547L22.5739 25.4066L26.2259 6.37206C26.3194 5.94621 26.3326 5.57811 26.2445 5.24549C26.1564 4.91287 25.9422 4.62373 25.6736 4.46346C25.4049 4.3032 25.1238 4.25134 24.8511 4.26331ZM24.8806 5.4019C24.9914 5.39677 25.0735 5.40943 25.0993 5.42487C25.1252 5.4403 25.1368 5.43827 25.1617 5.53206C25.1865 5.62584 25.2 5.82337 25.1322 6.13252L25.13 6.13909L21.4987 25.0631C21.4901 25.0822 21.4145 25.2573 21.2417 25.3978C21.0654 25.5412 20.8694 25.6532 20.3492 25.435L14.9143 21.1967L14.7612 21.0764L14.7579 21.0797L13.1326 19.8602L22.2665 9.11409C22.3367 9.03173 22.3815 8.9308 22.3956 8.82351C22.4096 8.71622 22.3923 8.60715 22.3457 8.50951C22.299 8.41186 22.2251 8.32981 22.1329 8.27328C22.0406 8.21675 21.9339 8.18816 21.8258 8.19096C21.7201 8.19371 21.6173 8.22632 21.5293 8.28502L8.31247 17.0963L3.3195 15.3867C3.3195 15.3867 2.8237 15.1108 2.79997 14.9186C2.79866 14.908 2.7928 14.9176 2.81857 14.8792C2.84433 14.8409 2.90909 14.7761 2.99029 14.7196C3.15267 14.6064 3.3381 14.538 3.3381 14.538L3.35669 14.5314L3.37529 14.5238C3.37529 14.5238 8.47775 12.3349 13.6697 10.1105C16.2656 8.99829 18.8841 7.87743 20.8983 7.01627C22.9119 6.15534 24.3669 5.53565 24.4901 5.48612C24.6304 5.42995 24.7698 5.40703 24.8806 5.4019ZM18.8234 11.435L11.8967 19.5846L11.8934 19.5878C11.8826 19.6009 11.8724 19.6144 11.8628 19.6283C11.8518 19.6435 11.8416 19.6592 11.8322 19.6753C11.7932 19.7414 11.7683 19.8147 11.7589 19.8908C11.7589 19.8923 11.7589 19.8937 11.7589 19.8952L10.8565 23.953C10.8415 23.9092 10.831 23.8931 10.815 23.8414V23.8403C10.5284 22.9194 9.2217 18.56 9.04091 17.9571L18.8234 11.435ZM12.6787 20.92L13.9234 21.8541L12.0947 23.5494L12.6787 20.92Z" fill="#FFFF00"/>
</svg>

<svg width="28" height="29" fill="none" xmlns="http://www.w3.org/2000/svg"><path d="M24.851 4.263a2.399 2.399 0 00-.778.184c-.237.095-1.6.678-3.616 1.539-2.014.861-4.633 1.983-7.23 3.095L2.934 13.495l.038-.015s-.308.103-.62.32c-.157.11-.325.25-.462.455a1.201 1.201 0 00-.2.801c.133 1.078 1.25 1.384 1.25 1.384l.004.002 4.986 1.706c.127.425 1.512 5.047 1.816 6.026.169.541.326.853.49 1.066.083.107.169.19.264.25a.723.723 0 00.117.058h.002l.014.004-.013-.003c.01.003.018.01.027.013.018.006.03.006.052.01.57.2 1.043-.17 1.043-.17l.02-.015 3.063-2.84 4.97 3.875.062.028c.87.386 1.657.17 2.092-.184.436-.354.607-.811.607-.811l.019-.048 3.652-19.035c.093-.426.107-.794.018-1.127a1.309 1.309 0 00-.57-.782 1.45 1.45 0 00-.823-.2zm.03 1.139a.513.513 0 01.218.023c.026.015.038.013.063.107.024.094.038.291-.03.6l-.002.007-3.631 18.924c-.009.02-.084.194-.257.335-.177.143-.373.255-.893.037l-5.435-4.238-.153-.12-.003.003-1.625-1.22 9.134-10.746a.56.56 0 00-.738-.829L8.312 17.096l-4.992-1.71s-.496-.275-.52-.467c-.001-.011-.007-.001.019-.04a.734.734 0 01.171-.16c.163-.113.348-.181.348-.181l.019-.007.018-.007s5.103-2.19 10.295-4.413c2.596-1.113 5.214-2.234 7.228-3.095 2.014-.86 3.469-1.48 3.592-1.53.14-.056.28-.079.39-.084zm-6.058 6.033l-6.926 8.15-.004.003a.597.597 0 00-.06.087.559.559 0 00-.074.216v.004l-.902 4.058c-.015-.044-.026-.06-.042-.112-.287-.922-1.593-5.281-1.774-5.884l9.782-6.522zM12.68 20.92l1.244.934-1.828 1.695.584-2.629z" fill="#FF0"/></svg>
